assets/svg/balance-pay.svg

<?xml version="1.0" encoding="UTF-8"?>
<svg width="1000px" height="1000px" viewBox="0 0 1000 1000" version="1.1" xmlns="http://www.w3.org/2000/svg" xmlns:xlink="http://www.w3.org/1999/xlink">
    <!-- Generator: sketchtool 52.4 (67378) - http://www.bohemiancoding.com/sketch -->
    <title>balance-pay</title>
    <desc>Created with sketchtool.</desc>
    <g id="新版图标" stroke="none" stroke-width="1" fill="none" fill-rule="evenodd">
        <g id="balance-pay" fill="#323233">
            <g id="圆角-余额支付-线">
                <path d="M752.277778,111.111111 C764.555556,111.111111 775.777778,119.333333 779.055556,131.722222 L816.555556,271.555556 L839.111111,271.555556 C866.611111,271.555556 888.888889,293.833333 888.888889,321.333333 L888.888889,832.888889 C888.888889,860.388889 866.611111,882.666667 839.111111,882.666667 L160.888889,882.666667 C133.388889,882.666667 111.111111,860.388889 111.111111,832.888889 L111.111111,321.333333 C111.111111,296.444444 129.666667,276.777778 153.5,273 L307.111111,119.388889 C311.222222,115.277778 316.5,113.277778 321.888889,113.277778 C327.222222,113.277778 332.5,115.277778 336.611111,119.388889 C336.777778,119.611111 336.722222,119.888889 336.833333,120.055556 C337.055556,120.222222 337.388889,120.166667 337.555556,120.333333 L417.166667,199.944444 L745.055556,112.055556 C747.444444,111.444444 749.888889,111.111111 752.277778,111.111111 Z M166.666667,827.111111 L833.333333,827.111111 L833.333333,327.111111 L166.666667,327.111111 L166.666667,827.111111 Z M364.555556,271.555556 L759.055556,271.555556 L732.666667,172.944444 L364.555556,271.555556 Z M237.277778,248.111111 L370.666667,212.444444 L321.888889,163.611111 L237.277778,248.111111 Z M557.944444,441.422222 C550.833333,441.422222 543.722222,444.144444 538.277778,449.533333 L500,487.866667 L461.722222,449.533333 C456.277778,444.144444 449.166667,441.422222 442.055556,441.422222 C434.944444,441.422222 427.833333,444.144444 422.444444,449.533333 C411.555556,460.422222 411.555556,477.977778 422.444444,488.866667 L451.888889,518.366667 L430.555556,518.366667 C415.222222,518.366667 402.777778,530.755556 402.777778,546.144444 C402.777778,561.422222 415.222222,573.922222 430.555556,573.922222 L472.222222,573.922222 L472.222222,601.7 L430.555556,601.7 C415.222222,601.7 402.777778,614.088889 402.777778,629.477778 C402.777778,644.755556 415.222222,657.255556 430.555556,657.255556 L472.222222,657.255556 L472.222222,685.033333 C472.222222,700.311111 484.666667,712.811111 500,712.811111 C515.333333,712.811111 527.777778,700.311111 527.777778,685.033333 L527.777778,657.255556 L569.444444,657.255556 C584.777778,657.255556 597.222222,644.755556 597.222222,629.477778 C597.222222,614.088889 584.777778,601.7 569.444444,601.7 L527.777778,601.7 L527.777778,573.922222 L569.444444,573.922222 C584.777778,573.922222 597.222222,561.422222 597.222222,546.144444 C597.222222,530.755556 584.777778,518.366667 569.444444,518.366667 L548.111111,518.366667 L577.611111,488.866667 C588.444444,477.977778 588.444444,460.422222 577.611111,449.533333 C572.166667,444.144444 565.055556,441.422222 557.944444,441.422222" id="Fill-1"></path>
            </g>
        </g>
    </g>
</svg>

<svg width="1000" height="1000" xmlns="http://www.w3.org/2000/svg"><path d="M752.278 111.111c12.278 0 23.5 8.222 26.778 20.611l37.5 139.834h22.555c27.5 0 49.778 22.277 49.778 49.777V832.89c0 27.5-22.278 49.778-49.778 49.778H160.89c-27.5 0-49.778-22.278-49.778-49.778V321.333c0-24.889 18.556-44.555 42.389-48.333l153.611-153.611c4.111-4.111 9.389-6.111 14.778-6.111 5.333 0 10.611 2 14.722 6.11.167.223.111.5.222.668.223.166.556.11.723.277l79.61 79.611 327.89-87.888c2.388-.612 4.833-.945 7.222-.945zm-585.611 716h666.666v-500H166.667v500zm197.889-555.555h394.5l-26.39-98.612-368.11 98.612zM237.278 248.11l133.389-35.667-48.778-48.833-84.611 84.5zm320.666 193.311a27.9 27.9 0 0 0-19.666 8.111L500 487.867l-38.278-38.334a27.9 27.9 0 0 0-19.666-8.11c-7.112 0-14.223 2.721-19.612 8.11-10.888 10.89-10.888 28.445 0 39.334l29.445 29.5h-21.333c-15.334 0-27.778 12.389-27.778 27.777 0 15.278 12.444 27.778 27.778 27.778h41.666V601.7h-41.666c-15.334 0-27.778 12.389-27.778 27.778 0 15.278 12.444 27.778 27.778 27.778h41.666v27.777c0 15.278 12.445 27.778 27.778 27.778 15.333 0 27.778-12.5 27.778-27.778v-27.777h41.666c15.334 0 27.778-12.5 27.778-27.778 0-15.39-12.444-27.778-27.778-27.778h-41.666v-27.778h41.666c15.334 0 27.778-12.5 27.778-27.778 0-15.388-12.444-27.777-27.778-27.777h-21.333l29.5-29.5c10.833-10.89 10.833-28.445 0-39.334a27.9 27.9 0 0 0-19.667-8.11" fill="#323233" fill-rule="evenodd"/></svg>
